src/public/img/landing/new/dev-friendly/1.svg

<svg width="64" height="64" viewBox="0 0 64 64" fill="none" xmlns="http://www.w3.org/2000/svg">
<rect width="64" height="64" rx="16" fill="url(#paint0_linear_2628_7049)"/>
<path d="M20 35C20 34.4477 20.4477 34 21 34H23C23.5523 34 24 34.4477 24 35V43C24 43.5523 23.5523 44 23 44H21C20.4477 44 20 43.5523 20 43V35Z" stroke="white" stroke-width="2" stroke-linejoin="round"/>
<path d="M30 21C30 20.4477 30.4477 20 31 20H33C33.5523 20 34 20.4477 34 21V43C34 43.5523 33.5523 44 33 44H31C30.4477 44 30 43.5523 30 43V21Z" stroke="white" stroke-width="2" stroke-linejoin="round"/>
<path d="M40 29C40 28.4477 40.4477 28 41 28H43C43.5523 28 44 28.4477 44 29V43C44 43.5523 43.5523 44 43 44H41C40.4477 44 40 43.5523 40 43V29Z" stroke="white" stroke-width="2" stroke-linejoin="round"/>
<defs>
<linearGradient id="paint0_linear_2628_7049" x1="32" y1="0" x2="32" y2="64" gradientUnits="userSpaceOnUse">
<stop stop-color="white" stop-opacity="0.16"/>
<stop offset="1" stop-color="white" stop-opacity="0.08"/>
</linearGradient>
</defs>
</svg>

<svg xmlns="http://www.w3.org/2000/svg" width="64" height="64" fill="none">
  <rect width="64" height="64" fill="url(#a)" rx="16"/>
  <path stroke="#fff" stroke-linejoin="round" stroke-width="2" d="M20 35a1 1 0 0 1 1-1h2a1 1 0 0 1 1 1v8a1 1 0 0 1-1 1h-2a1 1 0 0 1-1-1v-8Zm10-14a1 1 0 0 1 1-1h2a1 1 0 0 1 1 1v22a1 1 0 0 1-1 1h-2a1 1 0 0 1-1-1V21Zm10 8a1 1 0 0 1 1-1h2a1 1 0 0 1 1 1v14a1 1 0 0 1-1 1h-2a1 1 0 0 1-1-1V29Z"/>
  <defs>
    <linearGradient id="a" x1="32" x2="32" y1="0" y2="64" gradientUnits="userSpaceOnUse">
      <stop stop-color="#fff" stop-opacity=".16"/>
      <stop offset="1" stop-color="#fff" stop-opacity=".08"/>
    </linearGradient>
  </defs>
</svg>
